X:1
T: Five Minute Strathspey
C:
R:Strathspey
Q: 128
K:D
M:4/4
L:1/16
|:A3G|F3A d3F E3F G3B|A3G FE3 F4 F3E|D3F ((3F2G2A2) B3A G3F|EG3 GB3 c4 B3A|
F3A d3A G3A B3d|c3B AG3 F6E2|D4 ((3D2E2F2) G3E B,3D|EF3 D3C D3A ((3A2B2c2) |
d4 d3e d3c B3A|B3c de3 c4 BA3|B3A ((3B2c2d2) A3G F3A|EG3 GB3 c4 B3A|
d4 d3e d3c B3A|B3c de3 f4 f3e|d3e ((3d2c2B2) A3B G3F|EF3 D3C D4:|

